src/assets/images/icons/shtraf.svg

<svg id="da6c865c-207a-43d6-8cfe-fd83d1e2c8bb" data-name="Layer 1" xmlns="http://www.w3.org/2000/svg" viewBox="0 0 72 72"><title>shtraf</title><circle cx="17.0222" cy="37.9156" r="3.8921" fill="#fff"/><path d="M64.0438,42.0075c-17.4859,2.9133-36.8407,14.0763-40.341,16.159L9.3817,34.98,45.8073,12.4818Z" fill="#b6dcfe"/><path d="M45.5963,13.3746,62.988,41.5326C46.219,44.58,28.5142,54.565,23.9179,57.28L10.2745,35.191,45.5963,13.3746m.422-1.7856L8.4889,34.7689,23.4877,59.0526s22.0761-13.6352,41.62-16.557L46.0183,11.589Z" fill="#4788c7"/><path d="M61.149,34.8519c-15.8266,5.8-36.9281,18.45-40.598,20.6805L6.2326,32.35,44.8658,8.4886Z" fill="#b6dcfe"/><path d="M44.6548,9.3814,60.1813,34.52C45.0612,40.2016,25.5771,51.74,20.7654,54.6451L7.1254,32.5613l37.5294-23.18m.422-1.7856L5.34,32.1393,20.3386,56.423S44.6223,41.4242,62.1209,35.191L45.0768,7.5958Z" fill="#4788c7"/><rect x="6.661" y="15.0755" width="48.0029" height="27.2449" transform="translate(-10.5057 20.3947) rotate(-31.7014)" fill="#b6dcfe"/><path d="M43.7133,5.3882,57.3486,27.4643,17.6116,52.0078,3.9763,29.9316,43.7133,5.3882m.4221-1.7856L2.1907,29.51,17.19,53.7933,59.1341,27.8864,44.1354,3.6026Z" fill="#4788c7"/><circle cx="30.6624" cy="28.698" r="9.0816" fill="#fff"/><circle cx="45.0119" cy="19.8351" r="3.8921" fill="#fff"/><circle cx="17.0119" cy="37.8351" r="3.8921" fill="#fff"/><polygon points="42.701 52.034 42.701 60.279 37.644 60.279 44.468 67.103 51.292 60.279 46.235 60.279 46.235 52.034 42.701 52.034" fill="#b6dcfe"/><path d="M44.4677,66.27l-5.4021-5.4021H43.29V52.6226h2.3559v8.2456H49.87L44.4677,66.27m0,1.6657L52.7134,59.69h-5.89V51.4446H42.1118V59.69h-5.89l8.2457,8.2457Z" fill="#4788c7"/></svg>

<svg data-name="Layer 1" xmlns="http://www.w3.org/2000/svg" viewBox="0 0 72 72"><path d="M64.044 42.008c-17.486 2.913-36.84 14.076-40.341 16.158L9.382 34.98l36.425-22.498z" fill="#b6dcfe"/><path d="M45.596 13.375l17.392 28.158C46.219 44.58 28.514 54.565 23.918 57.28L10.275 35.191l35.321-21.816m.422-1.786l-37.53 23.18 15 24.284s22.076-13.636 41.62-16.557l-19.09-30.907z" fill="#4788c7"/><path d="M61.149 34.852c-15.827 5.8-36.928 18.45-40.598 20.68L6.233 32.35 44.866 8.489z" fill="#b6dcfe"/><path d="M44.655 9.381L60.18 34.52c-15.12 5.682-34.604 17.22-39.416 20.125L7.125 32.561l37.53-23.18m.422-1.785L5.34 32.139l14.999 24.284S44.622 41.424 62.12 35.191L45.077 7.596z" fill="#4788c7"/><path fill="#b6dcfe" d="M3.083 29.72L43.924 4.495l14.317 23.18L17.401 52.9z"/><path d="M43.713 5.388L57.35 27.464 17.612 52.008 3.976 29.932 43.713 5.388m.422-1.785L2.191 29.51 17.19 53.793l41.944-25.907L44.135 3.603z" fill="#4788c7"/><circle cx="30.662" cy="28.698" r="9.082" fill="#fff"/><circle cx="45.012" cy="19.835" r="3.892" fill="#fff"/><circle cx="17.022" cy="37.916" r="3.892" fill="#fff"/><path fill="#b6dcfe" d="M42.701 52.034v8.245h-5.057l6.824 6.824 6.824-6.824h-5.057v-8.245h-3.534z"/><path d="M44.468 66.27l-5.402-5.402h4.224v-8.245h2.356v8.245h4.224l-5.402 5.402m0 1.666l8.245-8.246h-5.89v-8.245h-4.711v8.245h-5.89l8.245 8.246z" fill="#4788c7"/></svg>
